X:1
T:Title
%%score { 1 | ( 2 3 ) }
L:1/8
M:6/8
K:Eb
V:1 treble nm="Grand Piano"
V:2 bass 
V:3 bass 
V:1
 z3 z2[Q:1/4=100] B, | G2 G GB>A | G3 E2 B, | [DF]2 [DF] [DF][DB]>[FA] |[M:5/8] G-G- G3 | %5
[M:1/8] B, |[M:3/4] G>G GG B>A | G3 E2 B, | [DF]>[DF] [DF][DF]/[DG]/- [DG]F |[M:5/8] E-E- E3 | %10
[M:1/8] E |[M:3/4] [Ec]>[Ec] [Ec]c de | [Ge]3 B2 G | [GB]>[FA] [EG][FA]/[GB]/- [GB][FA] | %14
[M:5/8] G-G- G3 |[M:1/8] E |[M:3/4] [Ec]>[Ec] [Ec]c de | [Ge]3 [EB]2 [B,EG] | %18
 [EGB]>[B,EG] [G,E][B,DG]/[B,DG]/- [B,DG][A,DF] |[M:5/8] [G,E]-[G,E]- [G,E]3 |] %20
V:2
 z3 z2 [E,G,] | [E,B,E]2 [E,B,E] [E,B,E][E,DE]>[E,CE] | [E,B,E]3 [E,G,B,]2 [E,G,] | %3
 [B,,B,]2 [B,,B,] [B,,B,][B,,F,]>[B,,B,] |[M:5/8] [E,B,E]-[E,B,E]- [E,B,E]3 |[M:1/8] [E,G,] | %6
[M:3/4] [E,B,E]>[E,B,E] [E,B,E][E,B,E] [E,CE]>[E,CE] | [E,B,E]3 [E,G,B,]2 [E,G,] | %8
 [B,,A,]>[B,,A,] [B,,A,][B,,A,]/[B,,B,]/- [B,,B,][B,,A,B,] |[M:5/8] [E,G,B,]-[E,G,B,]- [E,G,B,]3 | %10
[M:1/8] [E,G,] |[M:3/4] [A,,A,]>[A,,A,] [A,,A,][A,E] [A,B,E][A,CE] | B,3 [G,E]2 [E,B,E] | %13
 [B,,B,]>[B,,B,] [B,,B,][B,,B,]/[B,,B,]/- [B,,B,][B,,B,] |[M:5/8] [E,B,E]-[E,B,E]- [E,B,E]3 | %15
[M:1/8] [E,G,] |[M:3/4] [A,,A,]>[A,,A,] [A,,A,][A,E] [A,B,E][A,CE] | [E,B,]3 [E,G,]2 E, | %18
 E,>E, E,B,,/B,,/- B,,B,, |[M:5/8] E,-E,- E,3 |] %20
V:3
 x6 | x6 | x6 | x6 |[M:5/8] x5 |[M:1/8] x |[M:3/4] x6 | x6 | x6 |[M:5/8] x5 |[M:1/8] x | %11
[M:3/4] x6 | E,6 | x6 |[M:5/8] x5 |[M:1/8] x |[M:3/4] x6 | x6 | x6 |[M:5/8] x5 |] %20

